src/app/components/images/Position_marker_3.svg

<svg width="43" height="43" fill="none" xmlns="http://www.w3.org/2000/svg"><mask id="a" style="mask-type:alpha" maskUnits="userSpaceOnUse" x="4" y="4" width="35" height="35"><circle cx="21.5" cy="21.5" r="17.5" fill="#B098F3"/></mask><g mask="url(#a)"><path fill="#5C45EC" d="M-17.724-9.276H65.15v63.965h-82.874z"/><path d="M44.62 4C28.188 39.505 16.87 42.223-7.939 9.36l3.514 34.462 52.56-5.36L44.62 4z" fill="#3B0BF8"/></g><g filter="url(#b)"><circle cx="21.5" cy="21.5" r="16.5" stroke="#776FDA" stroke-width="2"/></g><path d="M20.08 18.848c.192.032.472.048.84.048.384 0 .792-.072 1.224-.216.448-.16.768-.352.96-.576.352-.384.528-.752.528-1.104 0-.544-.28-.952-.84-1.224a3.864 3.864 0 0 0-1.752-.408c-1.072 0-1.984.112-2.736.336l-.336.12c-.112 0-.168-.192-.168-.576 0-.384.04-.808.12-1.272.08-.464.168-.744.264-.84.752-.224 1.616-.336 2.592-.336.992 0 1.816.056 2.472.168a7.835 7.835 0 0 1 1.92.576c.608.256 1.088.64 1.44 1.152.352.512.528 1.144.528 1.896s-.264 1.4-.792 1.944c-.512.544-1.048.912-1.608 1.104-.08.032-.08.064 0 .096.096.032.224.08.384.144.16.048.448.184.864.408.416.224.776.488 1.08.792.32.288.608.704.864 1.248.256.528.384 1.184.384 1.968s-.232 1.528-.696 2.232a4.723 4.723 0 0 1-1.8 1.656c-1.504.8-3.224 1.2-5.16 1.2-1.392 0-2.472-.12-3.24-.36l-.384-.12c-.064-.08-.136-.536-.216-1.368a28.046 28.046 0 0 1-.096-2.088c0-.576.008-.944.024-1.104.016-.08.208-.176.576-.288a3.306 3.306 0 0 1 1.032-.192c.304 0 .456.016.456.048 0 .848.208 1.544.624 2.088.416.528 1.144.792 2.184.792 1.04 0 1.856-.264 2.448-.792.608-.544.912-1.144.912-1.8 0-.672-.192-1.2-.576-1.584-.384-.384-.896-.656-1.536-.816-1.04-.288-2.176-.432-3.408-.432-.064 0-.096-.016-.096-.048 0-.72.168-1.424.504-2.112.112-.24.184-.36.216-.36z" fill="#F8F8F8"/><defs><filter id="b" x="0" y="0" width="43" height="43" filterUnits="userSpaceOnUse" color-interpolation-filters="sRGB"><feFlood flood-opacity="0" result="BackgroundImageFix"/><feBlend in="SourceGraphic" in2="BackgroundImageFix" result="shape"/><feGaussianBlur stdDeviation="2" result="effect1_foregroundBlur_44_449"/></filter></defs></svg>

<svg width="43" height="43" viewBox="0 0 43 43" fill="none" xmlns="http://www.w3.org/2000/svg">
<mask id="mask0_44_449" style="mask-type:alpha" maskUnits="userSpaceOnUse" x="4" y="4" width="35" height="35">
<circle cx="21.5" cy="21.5" r="17.5" fill="#B098F3"/>
</mask>
<g mask="url(#mask0_44_449)">
<rect x="-17.7241" y="-9.27586" width="82.8736" height="63.9655" fill="#5C45EC"/>
<path d="M44.6204 3.99999C28.1879 39.5046 16.8689 42.2229 -7.93866 9.3595L-4.42453 43.8216L48.1346 38.4621L44.6204 3.99999Z" fill="#3B0BF8"/>
</g>
<g filter="url(#filter0_f_44_449)">
<circle cx="21.5" cy="21.5" r="16.5" stroke="#776FDA" stroke-width="2"/>
</g>
<path d="M20.08 18.848C20.272 18.88 20.552 18.896 20.92 18.896C21.304 18.896 21.712 18.824 22.144 18.68C22.592 18.52 22.912 18.328 23.104 18.104C23.456 17.72 23.632 17.352 23.632 17C23.632 16.456 23.352 16.048 22.792 15.776C22.248 15.504 21.664 15.368 21.04 15.368C19.968 15.368 19.056 15.48 18.304 15.704L17.968 15.824C17.856 15.824 17.8 15.632 17.8 15.248C17.8 14.864 17.84 14.44 17.92 13.976C18 13.512 18.088 13.232 18.184 13.136C18.936 12.912 19.8 12.8 20.776 12.8C21.768 12.8 22.592 12.856 23.248 12.968C23.92 13.08 24.56 13.272 25.168 13.544C25.776 13.8 26.256 14.184 26.608 14.696C26.96 15.208 27.136 15.84 27.136 16.592C27.136 17.344 26.872 17.992 26.344 18.536C25.832 19.08 25.296 19.448 24.736 19.64C24.656 19.672 24.656 19.704 24.736 19.736C24.832 19.768 24.96 19.816 25.12 19.88C25.28 19.928 25.568 20.064 25.984 20.288C26.4 20.512 26.76 20.776 27.064 21.08C27.384 21.368 27.672 21.784 27.928 22.328C28.184 22.856 28.312 23.512 28.312 24.296C28.312 25.08 28.08 25.824 27.616 26.528C27.168 27.232 26.568 27.784 25.816 28.184C24.312 28.984 22.592 29.384 20.656 29.384C19.264 29.384 18.184 29.264 17.416 29.024L17.032 28.904C16.968 28.824 16.896 28.368 16.816 27.536C16.752 26.704 16.72 26.008 16.72 25.448C16.72 24.872 16.728 24.504 16.744 24.344C16.76 24.264 16.952 24.168 17.32 24.056C17.704 23.928 18.048 23.864 18.352 23.864C18.656 23.864 18.808 23.88 18.808 23.912C18.808 24.76 19.016 25.456 19.432 26C19.848 26.528 20.576 26.792 21.616 26.792C22.656 26.792 23.472 26.528 24.064 26C24.672 25.456 24.976 24.856 24.976 24.2C24.976 23.528 24.784 23 24.4 22.616C24.016 22.232 23.504 21.96 22.864 21.8C21.824 21.512 20.688 21.368 19.456 21.368C19.392 21.368 19.36 21.352 19.36 21.32C19.36 20.6 19.528 19.896 19.864 19.208C19.976 18.968 20.048 18.848 20.08 18.848Z" fill="#F8F8F8"/>
<defs>
<filter id="filter0_f_44_449" x="0" y="0" width="43" height="43" filterUnits="userSpaceOnUse" color-interpolation-filters="sRGB">
<feFlood flood-opacity="0" result="BackgroundImageFix"/>
<feBlend mode="normal" in="SourceGraphic" in2="BackgroundImageFix" result="shape"/>
<feGaussianBlur stdDeviation="2" result="effect1_foregroundBlur_44_449"/>
</filter>
</defs>
</svg>
